packages/core/src/svgs/gdcc.svg

<svg width="24" height="24" viewBox="0 0 24 24" fill="none" xmlns="http://www.w3.org/2000/svg">
<g clip-path="url(#clip0_31_10697)">
<path d="M0 0H24V24H0V0Z" fill="url(#paint0_linear_31_10697)"/>
<path d="M11.1429 14.1431C10.8386 15.7288 9.70718 18.4288 7.71432 18.4288C5.57146 18.4288 4.71432 13.9459 4.71432 12.0002C4.71432 8.57164 6.21432 5.57164 7.71432 5.57164C9.33432 5.57164 10.8043 8.00592 11.1429 9.42878C10.5686 6.91735 9.33432 5.14307 7.71432 5.14307C5.58432 5.14307 3.85718 8.21164 3.85718 12.0002C3.85718 15.7888 5.58432 18.8574 7.71432 18.8574C9.42432 18.8574 10.6372 16.8816 11.1429 14.1431Z" fill="url(#paint1_linear_31_10697)"/>
<path d="M9.97296 14.143C9.65582 15.5359 9.04725 16.9287 8.1001 16.9287C7.01582 16.9287 6.22725 15.8744 5.58439 15.0173L5.57153 15.0001C6.10296 16.543 7.03725 17.5716 8.1001 17.5716C9.34725 17.5716 10.4144 16.1573 10.8687 14.143H9.96868H9.97296ZM10.7615 9.42871C10.2601 7.64585 9.25725 6.42871 8.1001 6.42871C6.94296 6.42871 6.07296 7.64585 5.57153 9.42871L5.73439 9.15871C6.32582 8.15157 6.96439 7.07157 8.1001 7.07157C9.02582 7.07157 9.59153 8.19443 9.90868 9.42871H10.7658H10.7615Z" fill="#ECEDED"/>
<path d="M7.71432 10.7141H9.85718V9.85693H7.71432C7.02861 9.85693 6.85718 10.4269 6.85718 10.7141V12.8569C6.85718 13.5426 7.42718 13.7141 7.71432 13.7141H9.00003C9.68575 13.7141 9.85718 13.1441 9.85718 12.8569V11.5712H8.14289V12.4284H9.00003V12.8569H7.71432V10.7141ZM14.5715 12.8569V10.7141H15.8572V11.1426H16.7143V10.7141C16.7143 10.2855 16.4872 9.85693 15.8572 9.85693H14.5715C13.8857 9.85693 13.7143 10.4269 13.7143 10.7141V12.8569C13.7143 13.5426 14.2843 13.7141 14.5715 13.7141H15.8572C16.5429 13.7141 16.7143 13.1441 16.7143 12.8569V12.4284H15.8572V12.8569H14.5715ZM18 12.8569V10.7141H19.2857V11.1426H20.1429V10.7141C20.1429 10.2855 19.9157 9.85693 19.2857 9.85693H18C17.3143 9.85693 17.1429 10.4269 17.1429 10.7141V12.8569C17.1429 13.5426 17.7129 13.7141 18 13.7141H19.2857C19.9715 13.7141 20.1429 13.1441 20.1429 12.8569V12.4284H19.2857V12.8569H18ZM10.2857 10.7141V9.85693H12.4286C13.1143 9.85693 13.2857 10.4269 13.2857 10.7141V12.8569C13.2857 13.5426 12.7157 13.7141 12.4286 13.7141H10.2857V11.1426H11.1429V12.8569H12.4286V10.7141H10.2857Z" fill="#CE1DB4"/>
</g>
<defs>
<linearGradient id="paint0_linear_31_10697" x1="4.46571" y1="4.16143" x2="29.2071" y2="32.58" gradientUnits="userSpaceOnUse">
<stop stop-color="#1A1E21"/>
<stop offset="1" stop-color="#06060A"/>
</linearGradient>
<linearGradient id="paint1_linear_31_10697" x1="7.50003" y1="5.14307" x2="7.50003" y2="18.8574" gradientUnits="userSpaceOnUse">
<stop stop-color="#6602FF"/>
<stop offset="0.19" stop-color="#9C2597"/>
<stop offset="0.49" stop-color="#E74D47"/>
<stop offset="0.72" stop-color="#E21D91"/>
<stop offset="1" stop-color="#AD2B88"/>
</linearGradient>
<clipPath id="clip0_31_10697">
<rect width="24" height="24" fill="white"/>
</clipPath>
</defs>
</svg>

<svg xmlns="http://www.w3.org/2000/svg" width="24" height="24" fill="none" viewBox="0 0 24 24"><g clip-path="url(#a)"><path fill="url(#b)" d="M0 0h24v24H0z"/><path fill="url(#c)" d="M11.143 14.143c-.304 1.586-1.436 4.286-3.429 4.286-2.143 0-3-4.483-3-6.429 0-3.428 1.5-6.428 3-6.428 1.62 0 3.09 2.434 3.429 3.857-.574-2.512-1.809-4.286-3.429-4.286-2.13 0-3.857 3.069-3.857 6.857s1.727 6.857 3.857 6.857c1.71 0 2.923-1.975 3.429-4.714"/><path fill="#ECEDED" d="M9.973 14.143c-.317 1.393-.926 2.786-1.873 2.786-1.084 0-1.873-1.055-2.516-1.912L5.572 15c.531 1.543 1.465 2.572 2.528 2.572 1.247 0 2.314-1.415 2.769-3.429h-.9zm.788-4.714c-.5-1.783-1.504-3-2.66-3-1.158 0-2.028 1.217-2.53 3l.163-.27c.592-1.007 1.23-2.087 2.366-2.087.926 0 1.492 1.122 1.809 2.357h.857z"/><path fill="#CE1DB4" d="M7.714 10.714h2.143v-.857H7.714c-.685 0-.857.57-.857.857v2.143c0 .686.57.857.857.857H9c.686 0 .857-.57.857-.857V11.57H8.143v.857H9v.429H7.714zm6.858 2.143v-2.143h1.285v.429h.857v-.429c0-.428-.227-.857-.857-.857h-1.285c-.686 0-.858.57-.858.857v2.143c0 .686.57.857.857.857h1.286c.686 0 .857-.57.857-.857v-.429h-.857v.429zm3.428 0v-2.143h1.286v.429h.857v-.429c0-.428-.227-.857-.857-.857H18c-.686 0-.857.57-.857.857v2.143c0 .686.57.857.857.857h1.286c.685 0 .857-.57.857-.857v-.429h-.857v.429zm-7.714-2.143v-.857h2.143c.685 0 .857.57.857.857v2.143c0 .686-.57.857-.857.857h-2.143v-2.571h.857v1.714h1.286v-2.143z"/></g><defs><linearGradient id="b" x1="4.466" x2="29.207" y1="4.161" y2="32.58" gradientUnits="userSpaceOnUse"><stop stop-color="#1A1E21"/><stop offset="1" stop-color="#06060A"/></linearGradient><linearGradient id="c" x1="7.5" x2="7.5" y1="5.143" y2="18.857" gradientUnits="userSpaceOnUse"><stop stop-color="#6602FF"/><stop offset=".19" stop-color="#9C2597"/><stop offset=".49" stop-color="#E74D47"/><stop offset=".72" stop-color="#E21D91"/><stop offset="1" stop-color="#AD2B88"/></linearGradient><clipPath id="a"><path fill="#fff" d="M0 0h24v24H0z"/></clipPath></defs></svg>
